svg/mountains.svg

<svg width="62" height="50" viewBox="0 0 62 50" xmlns="http://www.w3.org/2000/svg"><title>mountains</title><desc>Created with Sketch.</desc><g fill-rule="nonzero" fill="#343434"><path d="M5.472 46h39.056l-19.528-39.056-19.528 39.056zm17.289-43.522c1.237-2.473 3.243-2.472 4.478 0l23.761 47.522h-46.99c-2.767 0-4.006-2.007-2.77-4.478l21.522-43.043z"/><path d="M42.5 17.944l-3.649 7.299 10.485 20.757h7.192l-14.028-28.056zm-8.126 7.308l5.889-11.779c1.235-2.471 3.239-2.468 4.47-.007l16.034 32.068c1.233 2.466-.009 4.466-2.759 4.466h-11.133l-12.501-24.748z"/><path d="M37.1 28.786l1.799-3.572-9.47-4.77c-.985-.496-2.537-.416-3.467.179l-1.029.658c-.465.298-1.11.181-1.439-.26l-3.892-5.218-3.206 2.392 5.514 7.391c.663.889 1.956 1.125 2.883.533l2.247-1.438c.465-.298 1.238-.339 1.743-.085l8.317 4.189z"/><path d="M50.209 31.206l1.57-3.679-5.663-2.417c-1.013-.432-2.617-.341-3.576.2l-4.063 2.291 1.965 3.484 3.219-1.815c.479-.27 1.275-.314 1.779-.099l4.769 2.035z"/></g></svg>

<svg width="62" height="50" xmlns="http://www.w3.org/2000/svg"><g fill="#343434"><path d="M5.472 46h39.056L25 6.944 5.472 46zM22.761 2.478c1.237-2.473 3.243-2.472 4.478 0L51 50H4.01c-2.767 0-4.006-2.007-2.77-4.478L22.762 2.479z"/><path d="M42.5 17.944l-3.649 7.299L49.336 46h7.192L42.5 17.944zm-8.126 7.308l5.889-11.779c1.235-2.471 3.239-2.468 4.47-.007l16.034 32.068C62 48 60.758 50 58.008 50H46.875L34.374 25.252z"/><path d="M37.1 28.786l1.799-3.572-9.47-4.77c-.985-.496-2.537-.416-3.467.179l-1.029.658a1.09 1.09 0 0 1-1.439-.26l-3.892-5.218-3.206 2.392 5.514 7.391c.663.889 1.956 1.125 2.883.533l2.247-1.438c.465-.298 1.238-.339 1.743-.085l8.317 4.189zM50.209 31.206l1.57-3.679-5.663-2.417c-1.013-.432-2.617-.341-3.576.2l-4.063 2.291 1.965 3.484 3.219-1.815c.479-.27 1.275-.314 1.779-.099l4.769 2.035z"/></g></svg>
